X: 22392
T: Lad O'Beirne's
R: reel
M: 4/4
K: Dmajor
A3^G A=GED|=C2GC ACAC|EAA^G A3B|^cAGE EDD2|
EAA^G A=GED|=C2GC ACAC|EAA^G A3B|^cAGE EDD2||
d3B cAAB|cded cA A2|cdec d2 ed|cAGE EDD2|
d3B cAAB|cded cA A2|cded cABd|cAGE EDD2||

